X:1
T:Title
%%score 1 2
L:1/8
Q:1/4=95
M:3/4
K:Eb
V:1 treble nm="Grand Piano, Soprano"
V:2 bass nm="Choir Pad, Safely Guarded"
V:1
 [GB]>[FA] [EG]2 [EG]2 | [EG][DF] [DF]2 [FA]2 | z2 [FA]>[EG] [FA][AB] | [Ad][Ac] [GB]2 [EG]2 | %4
w: By~D.~A.~Duff,~1909 * * *||||
 [EG]>[FA] [GB]2 [GB]2 | [Ge][Bd] [Ac]4 | [Fd]>[Ec] [DB][FA] [EG]2 | [DF]2 E4 | %8
w: ||||
 [GB]>[Ac] [GB]2 [EG]2 | [EG]>[EA] [EG]2 [B,E]2- | [B,E]2 [DF]>[EG] [FA][Ac] | [GB][DF] [EG]4 | %12
w: ||||
 [EG]>[EA] [EB]2 [Ee]2 | [Af]>[Ae] [Ad]2 [Ac]2 | [Fd]>[Ec] [DB][FA] [EG]2 | [DF]2 E4- | E4 z2 |] %17
w: |||||
V:2
 [E,B,]>[E,B,] [E,B,]2 [E,B,]2 | [B,,B,][B,,B,] [B,,B,]4 | z2 [B,,B,]>[B,,B,] [B,,B,][B,,B,] | %3
 [B,,B,][B,,B,] [E,B,]4 | [E,B,]>[E,B,] [E,E]2 [E,E]2 | [E,E][G,E] [A,E]4 | %6
 B,>B, [B,,B,][B,,B,] [B,,B,]2 | [B,,A,]2 [E,G,]4 | [E,E]>[E,E] [E,E]2 [E,B,]2 | %9
 [E,B,]>[E,C] [E,B,]2 [E,G,]2- | [E,G,]2 [B,,B,]>[B,,B,] [B,,B,][B,,B,] | [B,,B,][B,,B,] [E,B,]4 | %12
 [E,B,]>[F,B,] [G,B,]2 [G,B,]2 | [A,C]>[A,C] [A,C]2 [A,E]2 | B,>B, [B,,B,][B,,B,] [B,,B,]2 | %15
 [B,,B,]2 [E,G,]4- | [E,G,]4 z2 |] %17

